!!!COM: Palestrina, Giovanni Perluigi da
!!!OPR: Missa L'homme arme (1570)
!!!OMD: Sanctus
!!!OTL: First Section
**kern	**kern	**kern	**kern	**kern
*Ibass	*Itenor	*Itenor	*Icalto	*Icant
!Bassus	!Tenor 2	!Tenor 1	!Altus	!Cantus
*clefF4	*clefGv2	*clefGv2	*clefG2	*clefG2
*k[]	*k[]	*k[]	*k[]	*k[]
*G:mix	*G:mix	*G:mix	*G:mix	*G:mix
*M4/2	*M4/2	*M4/2	*M4/2	*M4/2
=1	=1	=1	=1	=1
0r	0r	0r	0r	0g
=2	=2	=2	=2	=2
0r	1r	0r	1.c	0g
.	[1c	.	.	.
.	.	.	2d	.
=3	=3	=3	=3	=3
0r	2c]	0r	2e	0cc
.	2d	.	2f	.
.	2e	.	2g	.
.	2f	.	2a	.
=4	=4	=4	=4	=4
0r	2g	0r	2e	0cc
.	2a	.	2f	.
.	2e	.	2g	.
.	2f	.	[2a	.
=5	=5	=5	=5	=5
0r	1g	0r	4a]	1b
.	.	.	4g	.
.	.	.	1g	.
.	1d	.	.	1a
.	.	.	2f#	.
=6	=6	=6	=6	=6
1.C	1.e	0r	1.g	1g
.	.	.	.	[1g
2D	2d	.	2f	.
=7	=7	=7	=7	=7
2E	1c	[0G	1e	2g]
2F	.	.	.	2a
2G	1B	.	1d	2b
2A	.	.	.	2cc
=8	=8	=8	=8	=8
2B	1r	1G]	2r	2dd
2c	.	.	2.g	2ee
2d	[1g	[1G	.	2b
.	.	.	4f	.
[2c	.	.	2e	2cc
=9	=9	=9	=9	=9
2c]	1g]	0G]	0d	0dd
4B	.	.	.	.
4A	.	.	.	.
1B	1g	.	.	.
=10	=10	=10	=10	=10
2c	1.g	0c	1.e	1cc
1C	.	.	.	.
.	.	.	.	[1g
2D	2f	.	2f	.
=11	=11	=11	=11	=11
2E	1e	1c	1g	2g]
2F	.	.	.	2a
1G	[1d	1B	2r	2.b
.	.	.	[2g	.
.	.	.	.	4cc
=12	=12	=12	=12	=12
0D	0d]	0A	2g]	1dd
.	.	.	4f	.
.	.	.	4e	.
.	.	.	1f#	2r
.	.	.	.	[2dd
=13	=13	=13	=13	=13
1G	1B	[0G	[0g	2dd]
.	.	.	.	2b
1C	2r	.	.	2cc
.	[2c	.	.	[2ee
=14	=14	=14	=14	=14
0r	2c]	1G]	1g]	2ee]
.	2B	.	.	2dd
.	2c	1r	2r	2cc
.	2e	.	[2g	2b
=15	=15	=15	=15	=15
1r	2c	0r	2g]	1a
.	2.d	.	2f#	.
[1G	.	.	2g	1g
.	4c	.	.	.
.	4B-	.	[2b-	.
.	4A	.	.	.
=16	=16	=16	=16	=16
2G]	2G	[0d	2b-]	0r
2F#	2A	.	2a	.
2G	2.B-	.	2g	.
[2B-	.	.	2f	.
.	4A	.	.	.
=17	=17	=17	=17	=17
2B-]	2G	1d]	2g	1r
2A	2F#	.	2a	.
2G	2G	1d	2b-	1dd
2F	[2d	.	2a	.
=18	=18	=18	=18	=18
1E	2d]	1G	1g	2ee
.	2c#	.	.	2ee
1D	2d	1r	2f	2.ff
.	[2f	.	[2a	.
.	.	.	.	4ee
=19	=19	=19	=19	=19
0r	2f]	0r	2a]	2dd
.	2e	.	2g	2cc
.	2d	.	2f	2dd
.	2c	.	2g	[2ee
=20	=20	=20	=20	=20
0r	1B-	0r	2f	4ee]
.	.	.	.	4dd
.	.	.	2d	1dd
.	1A	.	1e	.
.	.	.	.	2cc#
=21	=21	=21	=21	=21
2r	0r	1d	2f	1dd
2G	.	.	2b-	.
2F#	.	[1d	2a	2r
2G	.	.	[2b-	2g
=22	=22	=22	=22	=22
2.B-	0r	0d]	4b-]	2f
.	.	.	4a	.
.	.	.	4g	2g
4A	.	.	4f	.
2G	.	.	2g	2b-
2F#	.	.	2a	2a
=23	=23	=23	=23	=23
1G	2r	[0d	1b-	1g
.	1g	.	.	.
1D	.	.	1a	2r
.	2f#	.	.	[2dd
=24	=24	=24	=24	=24
1G	2g	1d]	0g	2dd]
.	2d	.	.	2b
2.C	2.e	1c	.	2cc
.	.	.	.	[2ee
4D	4f	.	.	.
=25	=25	=25	=25	=25
4E	1g	0B	1r	2ee]
4F	.	.	.	.
4G	.	.	.	4dd
4A	.	.	.	4cc
4B	1G	.	1d	2dd
4c	.	.	.	.
[2d	.	.	.	2b
=26	=26	=26	=26	=26
4d]	2.c	1A	2e	2cc
4c	.	.	.	.
1c	.	.	2c	1ee
.	4d	.	.	.
.	4e	1G	1g	.
.	4f	.	.	.
2B	[2g	.	.	[2dd
=27	=27	=27	=27	=27
1A	2g]	0r	2c	4dd]
.	.	.	.	4cc
.	2f#	.	2d	2.cc
1G	1g	.	4e	.
.	.	.	4f	4b
.	.	.	[2g	4b
.	.	.	.	8a
.	.	.	.	8g
=28	=28	=28	=28	=28
1r	0r	[0d	2g]	1a
.	.	.	2f	.
1G	.	.	1b-	2g
.	.	.	.	2g
=29	=29	=29	=29	=29
2F#	2r	1d]	2a	2a
2G	1G	.	2g	2b-
2B-	.	[1d	1r	2g
2A	2F	.	.	2a
=30	=30	=30	=30	=30
1G	2G	0d]	2r	2b-
.	2B-	.	1g	2g
1D	1A	.	.	1a
.	.	.	2f#	.
=31	=31	=31	=31	=31
2.B-	1.G	[0d	2g	1r
.	.	.	1b-	.
4A	.	.	.	.
2G	.	.	.	1dd
2F#	2A	.	2a	.
=32	=32	=32	=32	=32
1G	1B-	1d]	2g	2dd
.	.	.	2f	2dd
1C	[1G	1c	1e	2ee
.	.	.	.	2cc
=33	=33	=33	=33	=33
1G	1G]	1B	2d	1dd
.	.	.	1g	.
1D	2r	1A	.	1dd
.	[2d	.	2f#	.
=34	=34	=34	=34	=34
2r	2d]	[0G	[0g	1b
1E	2B	.	.	.
.	2c	.	.	2r
2C	2e	.	.	[2cc
=35	=35	=35	=35	=35
1G	2d	0G]	0g]	2cc]
.	2.e	.	.	2b
2.C	.	.	.	2cc
.	4d	.	.	.
.	2c	.	.	[2ee
4D	.	.	.	.
=36	=36	=36	=36	=36
2E	1B	[0G	[0g	2ee]
2BB	.	.	.	2dd
2C	1e	.	.	2cc
2C	.	.	.	2cc
=37	=37	=37	=37	=37
0G	0d	0G]	0g]	0b
*-	*-	*-	*-	*-
!!!CDT: 1525/^1526/-1594/2/2
!!!OCY: Italia
!!!AGN: Mass (Tenor)
!!!AST: renaissance, vocal
!!!ASW: Popular Song
!!!PWK: Masses, Book 3
!!!RNB: Cadence finals: C,D
!!!YOR: Le Opere Complete, v. 6, p. 97
!!!YOO: Rome, Italy: Fratelli Scalera
!!!END: 1992//
!!!EED: John Miller
!!!YEC: Copyright 2000, John Miller
!!!YEN: United States of America
!!!YEM: Rights to all derivative electronic formats reserved.
!!!YEM: Refer to licensing agreement for further details.
!!!YEM: This file must be accompanied by the licensing agreement.
!!!YEM: A copy of the licensing agreement may be found at http://www.music-cog.ohio-state.edu/HumdrumDatabases/Palestrina/license.txt
!!!EMD: converted to Humdrum by Bret Aarden
